X:59
T: MUHKUEHBCHEN FLIEGE
N: K0823
O: Europa, Mitteleuropa, Deutschland, Thueringen, Stotternheim
R: Kinder -, Tier - Lied
M: 2/4
L: 1/16
K: G
 | d4B2G2 | d4B2
G2 | d2d2B2G2 | d4B2
GG | d2d2B2G2 | d2d2B4 |
e2d2c2B2 | A2A2G4

